X:1
T:Title
%%score ( 1 2 ) ( 3 4 )
L:1/8
Q:1/4=90
M:4/4
K:A
V:1 treble nm="Grand Piano, Soprano"
V:2 treble 
V:3 bass nm="Choir Pad, I�ll Be There"
V:4 bass 
V:1
 [A,C][B,D][CE][CE] [DF]>[CE] [CA]2 | [DG][EA] [FB]>[FB] [F^A][FB] [DF]2 | %2
w: By~Z.~A.~Space * * * * * *||
 [DB][CA][DA][DG] [DG][DF] [DG]<[Fd] | [Ec]>[^D=c] [E^c]6 | [Ec][Ec][Fd][Fc] [EF]>[Ec] [^DB]2 | %5
w: |||
 [^DB][DB][Ec][EB] [=DE]>[DB] [CA]2 | [CA][CA][DB][DA] [DF][Fd] [Fd]<[Ec] | z2 A6 | z2 e6 | %9
w: ||||
 [CA]>[DB] [Ec]6 | [Fd][Ec][Ec][DB] [DB][C^A] [DB]<E | z2 c6 | z2 e6 | [CA]>[DB] [Ec]6 | %14
w: |||||
 [Fd][Ec][Ec][DB] [DB][C^A] [DB]<[DE] | z2 A6- | A4 z4 |] %17
w: |||
V:2
 x8 | x8 | x8 | x8 | x8 | x8 | x8 | [Ec]>[DB] C2 D>D C2 | c>d z2 A>A A2 | x8 | x8 | %11
 [EA]>[EB] E2 A>F E2 | c>d z2 A>A A2 | x8 | x8 | [Ec]>[DB] C2 D>D C2- | C4 z4 |] %17
V:3
 [A,,E,][A,,E,][A,,A,][A,,A,] [A,,A,]>[A,,A,] [A,,E,]2 | %1
 [B,,E,][C,A,] [D,A,]>[D,D] [D,D][D,D] [D,B,]2 | %2
 [D,F,][D,F,][E,B,][E,B,] [E,B,][E,A,] [E,B,]<[E,G,] | [E,A,]>[E,A,] A,2 E,>C, A,,2 | %4
 A,A,[F,^A,][F,A,] F,>F, [B,,F,]2 | [B,,A,][B,,A,][E,G,][E,G,] [E,G,]>E, [A,,E,]2 | %6
 [A,,=G,][A,,G,][D,F,][D,F,] [D,A,][D,A,] [E,A,]<[E,A,] | [E,A,]>[E,G,] A,2 F,>F, E,2 | z2 C6 | %9
 z4 [A,,A,]>[A,,A,] [A,,A,]2 | [A,,A,][A,,A,][E,A,][E,G,] [E,G,][E,G,] [E,G,]<[D,B,] | %11
 [C,A,]>[B,,G,] [A,,A,]2 [A,,E,]>[A,,A,] [A,,A,]2 | z2 C6 | z4 [A,,A,]>[A,,A,] [A,,A,]2 | %14
 [A,,A,][A,,A,][E,A,][E,G,] [E,G,][E,G,] [E,G,]<[E,G,] | z2 A,2 z4 | z8 |] %17
V:4
 x8 | x8 | x8 | x8 | x8 | x8 | x8 | z2 A,,6 | A,>B, z2 A,>A, A,2 | x8 | x8 | x8 | %12
 A,>B, z2 A,>A, A,2 | x8 | x8 | [E,A,]>[E,G,] A,,2- [A,,-F,]>[A,,-F,] [A,,E,]2- | [A,,E,]4 z4 |] %17

